!!!COM: Haydn, Franz Joseph
!!!OTL: String Quartet in G Major
!!!OPS: Opus 17
!!!ONM: No. 5
!!!OMD: Menuetto: Allegretto
!!!OMV: 2
!!!SCT: H III:29
!!!SCA: Thematisch-bibliographisches Werkevererzeichnis (A. van Hoboken)
!!!YOR: Trautwein Edition
!!!ENC: Frances Bennion
!!!CDT: 1732/3/31/-1809/5/31/
!!!CNT: Oesterreich
!!!YEC: Copyright (c) 1994, 2000 Center for Computer Assisted Research in the Humanities
!!!YEM: Rights to all derivative editions reserved.
!!!YEM: Refer to licensing agreement for further details.
!!!YEN: United States of America
**kern	**kern	**kern	**kern
*k[f#]	*k[f#]	*k[f#]	*k[f#]
*G:	*G:	*G:	*G:
*clefF4	*clefC3	*clefG	*clefG
*M3/4	*M3/4	*M3/4	*M3/4
2r	2r	2r	2r
4r	4r	4r	8g
.	.	.	8b
=1	=1	=1	=1
2r	2r	2.r	2dd
8G	8G	.	8b
8B	8B	.	8g
=2	=2	=2	=2
2.c	2.c	8d	4f#
.	.	8c#	.
.	.	8d	4a
.	.	8c#	.
.	.	8d	4d
.	.	8c#	.
=3	=3	=3	=3
4B	4B	8d	4g
.	.	8c#	.
4A	4A	8d	4a
.	.	8c#	.
4G	4G	8d	4b
.	.	8c#	.
=4	=4	=4	=4
4F#	4F#	4d	8dd
.	.	.	8cc
2r	2r	2r	4r
.	.	.	8g
.	.	.	8b
=5	=5	=5	=5
2r	2r	2.r	2dd
8G	8G	.	8b
8B	8B	.	8g
=6	=6	=6	=6
2.c	2.c	8d	4f#
.	.	8c#	.
.	.	8d	4a
.	.	8c#	.
.	.	8d	4d
.	.	8c#	.
=7	=7	=7	=7
4B	4B	4d	4g
4c	4c	4r	4a
4d	4A	8f#	8cc
.	.	8g	8b
=8	=8	=8	=8
4G	4G	4G	4g
4GG	2r	4r	4r
4r	.	8B	8b
.	.	8d	8dd
=9	=9	=9	=9
4r	4r	4g	4gg
8G	8G	4d	4dd
8B	8B	.	.
4c	4c	4e	4ee
=10	=10	=10	=10
4A	4A	4c	4cc
4F#	4F#	4cc	4ccc
4r	4r	8a	8aa
.	.	8cc	8ccc
=11	=11	=11	=11
8D	8d	4dd	4ddd
8F#	8f#	.	.
4G	4g	4b	4bb
4C	4c	8e	8ee
.	.	8a	8aa
=12	=12	=12	=12
4D	4d	4g	4gg
4d	4D	4f#	4ff#
4r	4r	4r	8g
.	.	.	8b
=13	=13	=13	=13
2r	2r	2.r	2dd
8G	8G	.	8b
8B	8B	.	8g
=14	=14	=14	=14
2.c	2.c	8d	4f#
.	.	8c#	.
.	.	8d	4a
.	.	8c#	.
.	.	8d	4d
.	.	8c#	.
=15	=15	=15	=15
4B	4B	8d	4g
.	.	8c#	.
4A	4A	8d	4a
.	.	8c#	.
4G	4G	8d	4b
.	.	8c#	.
=16	=16	=16	=16
4F#	4F#	4d	8dd
.	.	.	8cc
2r	2r	2r	4r
.	.	.	8gg
.	.	.	8bb
=17	=17	=17	=17
2.r	2.r	8b	4ddd
.	.	8dd	.
.	.	4ee	8gg
.	.	.	8bb
.	.	8a	4ccc
.	.	8cc	.
=18	=18	=18	=18
2.r	2.r	4dd	8ff#
.	.	.	8aa
.	.	8g	4bb
.	.	8b	.
.	.	8cc	8ee
.	.	8b	8gg
=19	=19	=19	=19
4r	4r	4a	2.gg
4d	4a	4cc	.
4d	4a	4cc	.
=20	=20	=20	=20
4d	4a	4cc	4ff#
2r	2r	2r	4r
.	.	.	8g
.	.	.	8b
=21	=21	=21	=21
2r	2r	2.r	2dd
8G	8G	.	8b
8B	8B	.	8g
=22	=22	=22	=22
2.c	2.c	8d	4f#
.	.	8c#	.
.	.	8d	4a
.	.	8c#	.
.	.	8d	4d
.	.	8c#	.
=23	=23	=23	=23
4B	4B	8d	4g
.	.	8c#	.
4A	4A	8d	4a
.	.	8c#	.
4G	4G	8d	4b
.	.	8c#	.
=24	=24	=24	=24
4F#	4F#	4d	8dd
.	.	.	8cc
2r	2r	4r	4r
.	.	8g	8b
.	.	8b	8dd
=25	=25	=25	=25
8C	8e	4cc	4ee
8E	8g	.	.
4F#	4a	8f#	8a
.	.	8a	8cc
8BB	8d	4b	4dd
8D	8f#	.	.
=26	=26	=26	=26
4E	4g	8e	8g
.	.	8g	8b
8AA	8c	4a	4cc
8C	8e	.	.
4D	4f#	8d	8f#
.	.	8f#	8a
=27	=27	=27	=27
4GG	4d	4g	4b
4C	4c	4e	4cc
4D	4d	4f#	4a
=28	=28	=28	=28
4GG	4G	4g	4g
2r	2r	2r	4r
.	.	.	8g
.	.	.	8b
=29	=29	=29	=29
2.r	2.r	2r	2dd
.	.	8G	8b
.	.	8B	8g
=30	=30	=30	=30
2r	2r	2.c	4f#
.	.	.	4a
8DD	8F#	.	4d
8FF#	8A	.	.
=31	=31	=31	=31
4GG	4d	4B	4g
4GG	4d	4B	4g
4GG	4d	4B	4g
=32	=32	=32	=32
2GG	2d	4B	4g
.	.	2r	4r
4r	4r	.	4d
=33	=33	=33	=33
2G	4r	2B-	4g
.	4b-	.	4g
4A	4a	4c	4g
=34	=34	=34	=34
2B-	4r	2d	4g
.	4g	.	8g
.	.	.	8a
4c	4e-	4e-	4g
=35	=35	=35	=35
2A	4r	2c	4cc
.	4f#	.	4cc
4G	4g	4B-	4cc
=36	=36	=36	=36
2F#	4r	2A	4cc
.	4d	.	8cc
.	.	.	8dd
4d	4A	4f#	4cc
=37	=37	=37	=37
2e-	4r	2g	4b-
.	4e-	.	4b-
4d	4f	4f	4b-
=38	=38	=38	=38
2c	4r	2e-	4ee-
.	4g	.	8ee-
.	.	.	8ff
4F	4cc	4a	4ee-
=39	=39	=39	=39
2B-	4r	4b-	4dd
.	4f	4d	4ff
4d	4B-	4f	4ff
=40	=40	=40	=40
2c	4r	2e-	4ff
.	4a	.	8ff
.	.	.	8gg
4A	4ee-	4c	4ff
=41	=41	=41	=41
2B-	4r	2d	4ff
.	4f	.	4b-
4d	4B-	4f	4b-
=42	=42	=42	=42
2c	4r	2e-	4a
.	4f	.	8a
.	.	.	8b-
4F	4e-	4a	4cc
=43	=43	=43	=43
4B-	4d	4b-	4b-
2r	2r	2r	4dd
.	.	.	4dd
=44	=44	=44	=44
2.r	2.r	2.r	2dd
.	.	.	4d
=45	=45	=45	=45
2B	4r	2d	4g
.	4f	.	4g
4c	4e-	4e-	4g
=46	=46	=46	=46
2d	4r	2f	4g
.	4B	.	8g
.	.	.	8a-
4c	4c	4e-	4g
=47	=47	=47	=47
2A	4r	2c	4f
.	4e-	.	4f
4B-	4d	4d	4f
=48	=48	=48	=48
2c	4r	2e-	4f
.	4A	.	8f
.	.	.	8g
4B-	4B-	4d	4f
=49	=49	=49	=49
2G	2B-	4r	4b-
.	.	4G	4b-
4F	4A	4A	4b-
=50	=50	=50	=50
2E-	2G	4B-	4b-
.	.	2r	8b-
.	.	.	8cc
4D	4F	.	4b-
=51	=51	=51	=51
2C	2E-	4r	4ee-
.	.	4a	4ee-
4BB-	4D	4b-	4ee-
=52	=52	=52	=52
2AA	4C	4cc	4ee-
.	4c	2r	8ee-
.	.	.	8ff
4GG	4B-	.	4ee-
=53	=53	=53	=53
4FF#	4A	4d 4cc	4ccc
4FF#	4f# 4A	4cc 4d	4ccc
4FF#	4f# 4A	4d 4cc	4ccc
=54	=54	=54	=54
4FF#	4A 4f#	4cc 4d	4ccc
2r	2r	2r	4r
.	.	.	8d
.	.	.	8a
=55	=55	=55	=55
4F#	4d	4a	4cc
2r	2r	2r	4r
.	.	.	8d
.	.	.	8f#
=56	=56	=56	=56
4G	4d	4g	4g
2r	2r	2r	2r
==	==	==	==
*-	*-	*-	*-
!!!RWG1: This file contains only pitch and duration data.
!!!RWG2: Transposing instruments are not transposed.
!!!RWG3: Spines may have incompatible meters.
!!!RWG4: Durations of rests and tied notes may be interpreted.
!!!RWG: Key is interpreted using the Humdrum key tool.
!!!GTL: 6 Divertimentos
!!!OPT: Recitative
!!!AFT: stage1
!!!END: 1997/04/15
!!!KEY: 897943998
!!!EMD: Converted from MuseData to Humdrum Dec 16, 2000, by Andreas Kornstaedt using muse2kern.
!!!EMD: Manual editing by Craig Sapp, Nov 2001
